src/extras-openmoji/flags/1F3F3-FE0F-200D-1F4CC-200D-2699-FE0F.svg

<svg id="emoji" viewBox="0 0 72 72" xmlns="http://www.w3.org/2000/svg">
  <g id="grid">
    <path fill="#B3B3B3" d="M68 4V68H4V4H68ZM72 0H0V72H72V0Z"/>
    <path fill="none" stroke="#00A5FF" stroke-miterlimit="10" stroke-width="0.1" d="M12.923 10.9583H59.0769C59.5869 10.9583 60.0761 11.1609 60.4367 11.5216C60.7974 11.8822 61 12.3714 61 12.8814V59.0352C61 59.5452 60.7974 60.0344 60.4367 60.395C60.0761 60.7557 59.5869 60.9583 59.0769 60.9583H12.9231C12.4131 60.9583 11.9239 60.7557 11.5633 60.395C11.2026 60.0344 11 59.5452 11 59.0352V12.8813C11 12.3713 11.2026 11.8822 11.5632 11.5215C11.9239 11.1609 12.413 10.9583 12.923 10.9583V10.9583Z"/>
    <path fill="none" stroke="#00A5FF" stroke-miterlimit="10" stroke-width="0.1" d="M53.7463 4H18.2537C17.009 4 16 5.00902 16 6.2537V65.7463C16 66.991 17.009 68 18.2537 68H53.7463C54.991 68 56 66.991 56 65.7463V6.2537C56 5.00902 54.991 4 53.7463 4Z"/>
    <path fill="none" stroke="#00A5FF" stroke-miterlimit="10" stroke-width="0.1" d="M68 53.7463V18.2537C68 17.009 66.991 16 65.7463 16L6.2537 16C5.00902 16 4 17.009 4 18.2537V53.7463C4 54.991 5.00902 56 6.2537 56L65.7463 56C66.991 56 68 54.991 68 53.7463Z"/>
    <path fill="none" stroke="#00A5FF" stroke-miterlimit="10" stroke-width="0.1" d="M36 65C52.0163 65 65 52.0163 65 36C65 19.9837 52.0163 7 36 7C19.9837 7 7 19.9837 7 36C7 52.0163 19.9837 65 36 65Z"/>
  </g>
  <g id="color">
    <path fill="#9B9B9A" d="M67 17H5.31909V54.8044H67V17Z"/>
    <path fill="#fff" fill-rule="evenodd" d="M22.5601 32.198C22.5145 32.2728 22.479 32.3549 22.4557 32.4432C22.2211 33.3348 22.0732 34.2567 22.0201 35.1979C21.9961 35.6228 22.267 36.0034 22.6681 36.1455L23.3852 36.3994C23.7669 36.5346 24.0255 36.8871 24.0685 37.2897C24.1109 37.6869 24.1727 38.0783 24.253 38.4629C24.3356 38.8588 24.1985 39.2733 23.8776 39.5195L23.2757 39.9814C22.9381 40.2405 22.7981 40.6862 22.9522 41.0829C23.2935 41.9616 23.7191 42.7927 24.2177 43.5681C24.448 43.9262 24.891 44.0751 25.2992 43.9542L26.0301 43.7377C26.4178 43.6229 26.8337 43.7555 27.1053 44.0552C27.3712 44.3486 27.6514 44.6289 27.9449 44.8948C28.2445 45.1663 28.3772 45.5822 28.2623 45.97L28.0469 46.6972C27.926 47.1057 28.0751 47.5489 28.4334 47.7792C29.2144 48.2813 30.0458 48.7066 30.9157 49.0466C31.3128 49.2017 31.7596 49.062 32.0191 48.7238L32.4806 48.1224C32.7268 47.8015 33.1412 47.6644 33.5371 47.747C33.9218 47.8272 34.3131 47.8891 34.7103 47.9315C35.1129 47.9745 35.4654 48.2331 35.6006 48.6148L35.8539 49.3299C35.9962 49.7319 36.3781 50.0029 36.8038 49.9779C37.2634 49.951 37.7259 49.9012 38.1901 49.8276C38.6544 49.7541 39.1096 49.6585 39.555 49.5422C39.9676 49.4344 40.2471 49.0586 40.2583 48.6323L40.2781 47.8764C40.2887 47.472 40.5436 47.1174 40.9126 46.9516C41.2752 46.7887 41.6282 46.6083 41.9706 46.4115C42.3217 46.2097 42.759 46.2117 43.0927 46.4411L43.718 46.8708C44.0694 47.1123 44.5374 47.1072 44.8671 46.8369C45.5894 46.2447 46.2487 45.5833 46.8363 44.8645C47.1059 44.5347 47.1108 44.0671 46.8695 43.716L46.4411 43.0926C46.2118 42.7589 46.2098 42.3217 46.4116 41.9706C46.6083 41.6282 46.7887 41.2752 46.9516 40.9126C47.1174 40.5436 47.472 40.2886 47.8764 40.278L48.6351 40.2581C49.0607 40.247 49.436 39.9685 49.5443 39.5568C49.779 38.6652 49.9269 37.7433 49.98 36.8021C50.0039 36.3772 49.7331 35.9966 49.3319 35.8545L48.6148 35.6005C48.2331 35.4653 47.9745 35.1128 47.9315 34.7102C47.889 34.3131 47.8272 33.9217 47.747 33.5371C47.6644 33.1412 47.8015 32.7268 48.1223 32.4806L48.7244 32.0186C49.062 31.7595 49.202 31.3138 49.0479 30.9171C48.7066 30.0384 48.281 29.2073 47.7823 28.4319C47.5521 28.0738 47.109 27.9249 46.7008 28.0458L45.9699 28.2623C45.5822 28.3771 45.1663 28.2445 44.8947 27.9448C44.6288 27.6514 44.3486 27.3712 44.0552 27.1053C43.7556 26.8338 43.6229 26.4179 43.7377 26.0301L43.9532 25.3028C44.0741 24.8944 43.925 24.4511 43.5667 24.2208C42.7857 23.7187 41.9543 23.2934 41.0844 22.9534C40.6873 22.7983 40.2405 22.938 39.981 23.2762L39.5195 23.8777C39.2733 24.1985 38.8588 24.3356 38.4629 24.253C38.0783 24.1728 37.687 24.1109 37.2898 24.0685C36.8872 24.0255 36.5347 23.7669 36.3995 23.3852L36.1462 22.6701C36.0039 22.2681 35.622 21.9971 35.1963 22.022C34.7367 22.049 34.2742 22.0988 33.8099 22.1724C33.3457 22.2459 32.8905 22.3414 32.4451 22.4578C32.3562 22.481 32.2734 22.5167 32.1982 22.5626L32.3534 25.2003L33.404 26.3403C34.2318 26.1183 35.1021 26 36 26C41.5228 26 46 30.4771 46 36C46 41.5228 41.5228 46 36 46C30.4771 46 26 41.5228 26 36C26 35.1021 26.1183 34.2318 26.3403 33.4039L25.2003 32.3533L22.5601 32.198Z" clip-rule="evenodd"/>
    <path fill="#fff" d="M46.2141 44.8108L47.6341 46.9407C47.9372 47.3954 47.3954 47.9372 46.9407 47.6341L44.8108 46.2142C44.7891 46.1997 44.7685 46.1835 44.7493 46.1658L26.8782 29.6964C26.7933 29.6181 26.684 29.5717 26.5687 29.5649L21.848 29.2872C21.4174 29.2619 21.2188 28.7396 21.5239 28.4345L28.4345 21.5239C28.7396 21.2188 29.2619 21.4174 29.2872 21.848L29.5649 26.5687C29.5717 26.684 29.6181 26.7933 29.6964 26.8782L46.1658 44.7493C46.1835 44.7685 46.1997 44.7891 46.2141 44.8108Z"/>
  </g>
  <g id="line">
    <path fill="none" stroke="#000" stroke-linecap="round" stroke-linejoin="round" stroke-width="2" d="M67 17H5V55H67V17Z"/>
  </g>
</svg>

<svg viewBox="0 0 72 72" xmlns="http://www.w3.org/2000/svg"><path fill="#B3B3B3" d="M68 4v64H4V4h64zm4-4H0v72h72V0z"/><path fill="none" stroke="#00A5FF" stroke-miterlimit="10" stroke-width=".1" d="M12.923 10.958h46.154A1.923 1.923 0 0161 12.881v46.154a1.923 1.923 0 01-1.923 1.923H12.923A1.923 1.923 0 0111 59.035V12.881a1.923 1.923 0 011.923-1.923v0z"/><path fill="none" stroke="#00A5FF" stroke-miterlimit="10" stroke-width=".1" d="M53.746 4H18.254A2.254 2.254 0 0016 6.254v59.492A2.254 2.254 0 0018.254 68h35.492A2.254 2.254 0 0056 65.746V6.254A2.254 2.254 0 0053.746 4z"/><path fill="none" stroke="#00A5FF" stroke-miterlimit="10" stroke-width=".1" d="M68 53.746V18.254A2.254 2.254 0 0065.746 16H6.254A2.254 2.254 0 004 18.254v35.492A2.254 2.254 0 006.254 56h59.492A2.254 2.254 0 0068 53.746z"/><path fill="none" stroke="#00A5FF" stroke-miterlimit="10" stroke-width=".1" d="M36 65c16.016 0 29-12.984 29-29S52.016 7 36 7 7 19.984 7 36s12.984 29 29 29z"/><path d="M67 17H5v38h62V17z" stroke-linecap="round" stroke-miterlimit="10" stroke-width="6" stroke="#fff" fill="none" stroke-linejoin="round"/><path fill="#9B9B9A" d="M67 17H5.32v37.804H67V17z"/><path fill="#fff" fill-rule="evenodd" d="M22.56 32.198a.922.922 0 00-.104.245 13.898 13.898 0 00-.436 2.755.956.956 0 00.648.947l.717.254c.382.136.64.488.683.89.043.398.105.79.185 1.174.083.396-.055.81-.375 1.056l-.602.462a.956.956 0 00-.324 1.102c.341.879.767 1.71 1.266 2.485a.956.956 0 001.081.386l.731-.216c.388-.115.804.017 1.075.317.266.294.546.574.84.84.3.271.432.687.317 1.075l-.215.727a.957.957 0 00.386 1.082c.781.502 1.613.928 2.483 1.268a.956.956 0 001.103-.323l.462-.602c.246-.32.66-.458 1.056-.375.385.08.776.142 1.173.184.403.044.755.302.89.684l.254.715a.956.956 0 00.95.648 14.119 14.119 0 002.751-.436.956.956 0 00.703-.91l.02-.756c.01-.404.266-.759.635-.924.362-.163.715-.344 1.058-.54.35-.202.788-.2 1.122.03l.625.429a.956.956 0 001.15-.034 14.049 14.049 0 001.968-1.973.957.957 0 00.034-1.148l-.429-.623a1.054 1.054 0 01-.03-1.122c.197-.343.378-.696.54-1.058.166-.37.521-.624.925-.635l.76-.02c.425-.011.8-.29.908-.701a13.89 13.89 0 00.436-2.755.956.956 0 00-.648-.947l-.717-.255a1.054 1.054 0 01-.684-.89 12.003 12.003 0 00-.184-1.173c-.083-.396.054-.81.375-1.056l.602-.462a.956.956 0 00.324-1.102 13.889 13.889 0 00-1.266-2.485.956.956 0 00-1.081-.386l-.731.216a1.054 1.054 0 01-1.075-.317 12.088 12.088 0 00-.84-.84 1.054 1.054 0 01-.317-1.075l.215-.727a.957.957 0 00-.386-1.082 14.047 14.047 0 00-2.483-1.268.956.956 0 00-1.103.323l-.462.602c-.246.32-.66.458-1.056.375-.385-.08-.776-.142-1.173-.184a1.054 1.054 0 01-.89-.684l-.254-.715a.956.956 0 00-.95-.648 14.155 14.155 0 00-2.75.436.918.918 0 00-.248.105l.155 2.637 1.051 1.14A10.01 10.01 0 0136 26c5.523 0 10 4.477 10 10s-4.477 10-10 10-10-4.477-10-10c0-.898.118-1.768.34-2.596l-1.14-1.05-2.64-.156z" clip-rule="evenodd"/><path fill="#fff" d="M46.214 44.81l1.42 2.13c.303.455-.239.997-.693.694l-2.13-1.42a.504.504 0 01-.062-.048l-17.87-16.47a.5.5 0 00-.31-.131l-4.721-.278a.5.5 0 01-.324-.852l6.91-6.911a.5.5 0 01.853.324l.278 4.72a.5.5 0 00.131.31l16.47 17.871c.018.02.034.04.048.062z"/><g><path fill="none" stroke="#000" stroke-linecap="round" stroke-linejoin="round" stroke-width="2" d="M67 17H5v38h62V17z"/></g></svg>
